X: 1
T:Brian Boru's Hornpipe  "Arrangedby Terry Tully"
M:C|
L:1/8
Q:80
C:Traditional Irish
S:Hornpipe
K:HP
|: {g}f/2e/2|
{g}d/2B/2{G}B/2A/2{gBeBG}B{g}f/2e/2|
{g}d/2B/2{G}B/2A/2{g}B/2f/2{g}e/2d/2|  !
{g}c/2A/2{gAGAG}A{g}A/2e/2{g}d/2e/2|
{g}c/2A/2{gAGAG}A{g}A/2f/2{g}e/2f/2{g}d/2B/2{G}B/2A/2{gBeBG}B{g}f/2e/2|
{g}d/2B/2{G}B/2A/2{g}B/2f/2{g}e/2d/2|  !
{g}c/2A/2{gAGAG}A{g}f/2e/2{g}d/2c/2|
{g}d/2B/2{G}B/2A/2{gBeBG}B:| |:
c/2|  !
{g}B/2c/2d/2e/2f/2{g}f/2{A}f/2A/2|
{g}e/2A/2{g}f/2A/2{g}e/2d/2{g}c/2e/2|
{g}A/2B/2c/2d/2e/2{g}e/2{A}e/2A/2|  !
{g}e/2A/2{g}f/2d/2{g}e/2d/2{g}c/2{d}A/2{g}B/2c/2d/2e/2f/2{g}f/2{A}f/2A/2
|
{g}e/2A/2{g}f/2A/2{g}e/2d/2{g}c/2e/2|
{gde}d/2c/2B/2A/2{g}f/2e/2{g}d/2c/2|  !
{g}d/2B/2{G}B/2A/2{gBeBG}B3/2:|
